X:1
T:James Gibb editions
T:James Gibb editions
T:Epitaph - Battishill
T:#
%%score [ 1 2 3 4 ]
L:1/8
Q:1/4=108
M:2/2
K:Bb
V:1 treble-8 nm="1" snm="1"
V:2 treble nm="2" snm="2"
V:3 treble nm="3" snm="3"
V:4 treble nm="4" snm="4"
V:1
"^Jonathan Battishill\n(1738-1801)""^Here on his back doth lay" B4 F2 D2 | E2 C2 B,4 | %2
w: Here on his|back doth lay|
 z2 F2 B2 A2 | G4 F4 | E4 D4 | C4 B,4 | E4 F2 B2 | F4 B,4 || z2 d2 c2 f2 | B2 e2 d2 B2 | %10
w: Sir An- drew|Kee- ling,|doth lay,|doth lay|Sir An- drew|Kee- ling,|And at his|feet his mourn- ful,|
 f3 e d2 c2 | B4 A4 | z2 c2 c2 B2 | z2 e2 e2 d2- || dG c3 B B2- | B2 A2 B2 B2 || z F B3 AGF | %17
w: mourn- ful La- dy|kneel- ing,|his La- dy,|his La- dy,|* his mourn- ful La\-|* dy kneel- ing.|But when he was a-|
 G2 E2 FF B2- | B2 Ac d=e (f2- | f2 =e2) f2 c2- | cBAG FF B2- | B2 A2 B2 F2 || G4 AF (f2- | %23
w: live and had his fee\-|* ling, and had his fee\-|* * ling, when|* he was a- live and had|* his fee- ling,|and had his fee\-|
 f3 e) d4- || d2 z2 z2 B2 | EFGA B3 c | (de) f2 B2 F2 | z2 G2 c3 B | A2 F2 z2 F2 | G2 (F<E) FFBA | %30
w: * * ling,|* She|laid up- on her back, and|he * was kneel- ing,|and he was|kneel- ing, up-|on her * back, up- on her|
 GB e4 d2 | c4 B4 || z8 | z8 |[M:2/2] z8 | z8 | z8 | z8 |[M:2/2] z8 | z8 || z8 | z8 |[M:2/2] z8 | %43
w: back, and he was|kneel- ing.||||||||||||
 z8 | z8 | z8 |[M:2/2] z8 | z8 || z8 | z8 | z8 |[M:2/2] z8 | z8 | z8 | z8 | z8 |] %56
w: |||||||||||||
V:2
[K:C] z8 | z8 | z8 | z8 | z8 | z8 | z8 | z8 ||[K:Bb][M:2/2][K:treble-8] B4 F2 D2 | E2 C2 B,4 | %10
w: ||||||||Here on his|back doth lay|
 z2 F2 B2 A2 | G4 F4 | E4 D4 | C4 B,4 || E4 F2 B2 | F4 B,4 || z2 d2 c2 f2 | B2 e2 d2 B2 | %18
w: Sir An- drew|Kee- ling,|doth lay,|doth lay|Sir An- drew|Kee- ling,|And at his|feet his mourn- ful,|
 f3 e d2 c2 | B4 A4 | z2 c2 c2 B2 | z2 e2 e2 d2- || dG c3 B B2- | B2 A2 B2 B2 || z F B3 AGF | %25
w: mourn- ful La- dy|kneel- ing,|his La- dy,|his La- dy,|* his mourn- ful La\-|* dy kneel- ing.|But when he was a-|
 G2 E2 FF B2- | B2 Ac d=e (f2- | f2 =e2) f2 c2- | cBAG FF B2- | B2 A2 B2 F2 | G4 AF (f2- | %31
w: live and had his fee\-|* ling, and had his fee\-|* * ling, when|* he was a- live and had|* his fee- ling,|and had his fee\-|
 f3 e) d4- || d2 z2 z2 B2 | EFGA B3 c | (de) f2 B2 F2 | z2 G2 c3 B | A2 F2 z2 F2 | G2 (F<E) FFBA | %38
w: * * ling,|* She|laid up- on her back, and|he * was kneel- ing,|and he was|kneel- ing, up-|on her * back, up- on her|
 GB e4 d2 | c4 B4 || z8 | z8 |[M:2/2] z8 | z8 | z8 | z8 |[M:2/2] z8 | z8 || z8 | z8 | z8 | %51
w: back, and he was|kneel- ing.||||||||||||
[M:2/2] z8 | z8 | z8 | z8 | z8 |] %56
w: |||||
V:3
[K:C] z8 | z8 | z8 | z8 | z8 | z8 | z8 | z8 ||[M:2/2] z8 | z8 | z8 | z8 | z8 | z8 || %14
w: ||||||||||||||
[K:Bb][M:2/2][K:treble-8] z8 | z8 || B4 F2 D2 | E2 C2 B,4 | z2 F2 B2 A2 | G4 F4 | E4 D4 | C4 B,4 || %22
w: ||Here on his|back doth lay|Sir An- drew|Kee- ling,|doth lay,|doth lay|
 E4 F2 B2 | F4 B,4 || z2 d2 c2 f2 | B2 e2 d2 B2 | f3 e d2 c2 | B4 A4 | z2 c2 c2 B2 | z2 e2 e2 d2- | %30
w: Sir An- drew|Kee- ling,|And at his|feet his mourn- ful,|mourn- ful La- dy|kneel- ing,|his La- dy,|his La- dy,|
 dG c3 B B2- | B2 A2 B2 B2 || z F B3 AGF | G2 E2 FF B2- | B2 Ac d=e (f2- | f2 =e2) f2 c2- | %36
w: * his mourn- ful La\-|* dy kneel- ing.|But when he was a-|live and had his fee\-|* ling, and had his fee\-|* * ling, when|
 cBAG FF B2- | B2 A2 B2 F2 | G4 AF (f2- | f3 e) d4- || d2 z2 z2 B2 | EFGA B3 c | (de) f2 B2 F2 | %43
w: * he was a- live and had|* his fee- ling,|and had his fee\-|* * ling,|* She|laid up- on her back, and|he * was kneel- ing,|
 z2 G2 c3 B | A2 F2 z2 F2 | G2 (F<E) FFBA | GB e4 d2 | c4 B4 || z8 | z8 | z8 |[M:2/2] z8 | z8 | %53
w: and he was|kneel- ing, up-|on her * back, up- on her|back, and he was|kneel- ing.||||||
 z8 | z8 | z8 |] %56
w: |||
V:4
[K:C] z8 | z8 | z8 | z8 | z8 | z8 | z8 | z8 ||[M:2/2] z8 | z8 | z8 | z8 | z8 | z8 ||[M:2/2] z8 | %15
w: |||||||||||||||
 z8 || z8 | z8 |[M:2/2] z8 | z8 | z8 | z8 ||[K:Bb][M:2/2][K:treble-8] z8 | z8 || B4 F2 D2 | %25
w: |||||||||Here on his|
 E2 C2 B,4 | z2 F2 B2 A2 | G4 F4 | E4 D4 | C4 B,4 | E4 F2 B2 | F4 B,4 || z2 d2 c2 f2 | %33
w: back doth lay|Sir An- drew|Kee- ling,|doth lay,|doth lay|Sir An- drew|Kee- ling,|And at his|
 B2 e2 d2 B2 | f3 e d2 c2 | B4 A4 | z2 c2 c2 B2 | z2 e2 e2 d2- | dG c3 B B2- | B2 A2 B2 B2 || %40
w: feet his mourn- ful,|mourn- ful La- dy|kneel- ing,|his La- dy,|his La- dy,|* his mourn- ful La\-|* dy kneel- ing.|
 z F B3 AGF | G2 E2 FF B2 | B2 Ac d=e (f2- | f2 =e2) f2 c2- | cBAG FF B2- | B2 A2 B2 F2 | %46
w: But when he was a-|live and had his fee\-|* ling, and had his fee\-|* * ling, when|* he was a- live and had|* his fee- ling,|
 G4 AF (f2- | f3 e) d4- || d2 z2 z2 B2 | EFGA B3 c | (de) f2 B2 F2 | z2 G2 c3 B | A2 F2 z2 F2 | %53
w: and had his fee\-|* * ling,|* She|laid up- on her back, and|he * was kneel- ing,|and he was|kneel- ing, up-|
 G2 (F<E) FFBA | GB e4 d2 | c4 B4 |] %56
w: on her * back, up- on her|back, and he was|kneel- ing.|

